X: 1
T: The Sally Gardens
R: Reel
M: 4/4
L: 1/8
K: Gmaj
|: G2DG BAGB | dBeB dBAB | d2Bd efge | dBAB GEDE |
G2DG BAGB | dBeB dBAB | d2Bd efge | dBAB G4 :|
|: dggf g2dg | g2bg agfg | eaag a2ea | a2bg ageg |
dggf g2dg | g2bg ageg |d2Bd efge | dBAB G4 :|
